; generated by Slic3r 1.36.2-prusa3d-linux64 on 2017-09-03 at 19:26:32

; 

; external perimeters extrusion width = 0.45mm
; perimeters extrusion width = 0.45mm
; infill extrusion width = 0.45mm
; solid infill extrusion width = 0.45mm
; top infill extrusion width = 0.40mm
; first layer extrusion width = 0.42mm

M107
M115 U3.0.12 ; tell printer latest fw version
M83  ; extruder relative mode
M104 S215 ; set extruder temp
M140 S55 ; set bed temp
M190 S55 ; wait for bed temp
M109 S215 ; wait for extruder temp
G28 W ; home all without mesh bed level
G80 ; mesh bed leveling
G1 Y-3.0 F1000.0 ; go outside pritn area
G1 X60.0 E9.0  F1000.0 ; intro line
G1 X100.0 E12.5  F1000.0 ; intro line
; Filament gcode

G21 ; set units to millimeters
G90 ; use absolute coordinates
M83 ; use relative distances for extrusion
G1 E-0.80000 F2100.00000
G1 Z0.200 F7200.000
G1 X115.463 Y79.686 F7200.000
G1 E0.80000 F2100.00000
M204 S1000
G1 F2100
G1 X116.144 Y79.288 E0.02372
G1 X116.913 Y79.134 E0.02361
G1 X132.992 Y79.133 E0.48363
G1 X133.591 Y79.211 E0.01817
G1 X134.154 Y79.439 E0.01828
G1 X134.641 Y79.802 E0.01828
G1 X135.020 Y80.277 E0.01828
G1 X144.483 Y97.525 E0.59178
G1 X145.734 Y100.125 E0.08679
G1 X146.660 Y102.953 E0.08949
G1 X147.179 Y105.635 E0.08218
G1 X147.361 Y108.380 E0.08275
G1 X147.152 Y111.592 E0.09683
G1 X146.524 Y114.584 E0.09194
G1 X145.387 Y117.697 E0.09970
G1 X144.007 Y120.300 E0.08862
G1 X142.290 Y122.693 E0.08862
G1 X140.050 Y125.059 E0.09798
G1 X137.477 Y127.071 E0.09828
G1 X134.941 Y128.552 E0.08832
G1 X132.220 Y129.681 E0.08862
G1 X129.059 Y130.514 E0.09833
G1 X125.992 Y130.865 E0.09285
G1 X123.047 Y130.798 E0.08862
G1 X119.778 Y130.272 E0.09958
G1 X116.869 Y129.362 E0.09171
G1 X114.205 Y128.112 E0.08850
G1 X111.467 Y126.340 E0.09810
G1 X109.019 Y124.179 E0.09821
G1 X107.098 Y121.952 E0.08850
G1 X105.489 Y119.479 E0.08873
G1 X104.051 Y116.397 E0.10231
G1 X103.191 Y113.571 E0.08885
G1 X102.720 Y110.671 E0.08839
G1 X102.638 Y107.407 E0.09821
G1 X103.039 Y104.174 E0.09798
G1 X103.798 Y101.319 E0.08884
G1 X104.997 Y98.455 E0.09342
G1 X114.912 Y80.351 E0.62087
G1 X115.425 Y79.732 E0.02417
G1 F5760
G1 X116.144 Y79.288 E-0.29275
G1 F5760
G1 X116.913 Y79.134 E-0.27184
G1 F5760
G1 X117.478 Y79.134 E-0.19541
G1 E-0.04000 F2100.00000
G1 X121.931 Y96.680 F7200.000
G1 E0.80000 F2100.00000
G1 F1680
G1 X123.959 Y96.334 E0.06188
G1 X126.016 Y96.334 E0.06188
G1 X128.045 Y96.680 E0.06188
G1 X129.986 Y97.360 E0.06188
G1 X131.786 Y98.357 E0.06188
G1 X133.392 Y99.641 E0.06186
G1 X134.717 Y101.118 E0.05967
G1 X135.784 Y102.788 E0.05964
G1 X136.567 Y104.610 E0.05964
G1 X137.046 Y106.534 E0.05964
G1 X137.207 Y108.513 E0.05971
G1 X137.010 Y110.694 E0.06589
G1 X136.426 Y112.808 E0.06597
G1 X135.474 Y114.783 E0.06597
G1 X134.183 Y116.557 E0.06597
G1 X132.597 Y118.071 E0.06597
G1 X130.765 Y119.277 E0.06597
G1 X128.748 Y120.136 E0.06597
G1 X126.609 Y120.621 E0.06597
G1 X124.418 Y120.716 E0.06597
G1 X122.245 Y120.417 E0.06597
G1 X120.161 Y119.735 E0.06597
G1 X118.232 Y118.692 E0.06597
G1 X116.521 Y117.320 E0.06597
G1 X115.082 Y115.665 E0.06597
G1 X113.963 Y113.779 E0.06597
G1 X113.199 Y111.723 E0.06597
G1 X112.814 Y109.564 E0.06597
G1 X112.822 Y107.371 E0.06597
G1 X113.221 Y105.215 E0.06597
G1 X114.000 Y103.165 E0.06597
G1 X115.132 Y101.287 E0.06597
G1 X116.581 Y99.642 E0.06592
G1 X118.190 Y98.357 E0.06193
G1 X119.989 Y97.360 E0.06188
G1 X121.874 Y96.700 E0.06008
G1 X121.999 Y97.055 F7200.000
G1 F1260
G1 X123.991 Y96.712 E0.06080
G1 X125.985 Y96.712 E0.05997
G1 X127.950 Y97.046 E0.05997
G1 X129.831 Y97.706 E0.05997
G1 X131.575 Y98.671 E0.05997
G1 X133.133 Y99.916 E0.05996
G1 X134.415 Y101.346 E0.05780
G1 X135.450 Y102.966 E0.05779
G1 X136.209 Y104.731 E0.05779
G1 X136.672 Y106.595 E0.05779
G1 X136.828 Y108.511 E0.05782
G1 X136.638 Y110.627 E0.06390
G1 X136.072 Y112.675 E0.06392
G1 X135.149 Y114.589 E0.06392
G1 X133.898 Y116.307 E0.06392
G1 X132.361 Y117.775 E0.06392
G1 X130.586 Y118.943 E0.06392
G1 X128.631 Y119.776 E0.06392
G1 X126.559 Y120.246 E0.06392
G1 X124.435 Y120.338 E0.06392
G1 X122.330 Y120.048 E0.06392
G1 X120.310 Y119.387 E0.06392
G1 X118.441 Y118.376 E0.06392
G1 X116.783 Y117.047 E0.06392
G1 X115.389 Y115.443 E0.06392
G1 X114.305 Y113.616 E0.06392
G1 X113.564 Y111.624 E0.06392
G1 X113.191 Y109.531 E0.06392
G1 X113.199 Y107.406 E0.06392
G1 X113.586 Y105.317 E0.06392
G1 X114.340 Y103.330 E0.06392
G1 X115.438 Y101.510 E0.06392
G1 X116.842 Y99.916 E0.06391
G1 X118.400 Y98.671 E0.05999
G1 X120.144 Y97.706 E0.05997
G1 X121.942 Y97.075 E0.05732
G1 X122.105 Y96.670 F7200.000
G1 F5760
G1 X123.991 Y96.712 E-0.72062
G1 F5760
G1 X124.105 Y96.712 E-0.03938
G1 E-0.04000 F2100.00000
G1 X117.575 Y90.536 F7200.000
G1 E0.80000 F2100.00000
G1 F1680
G1 X117.575 Y82.235 E0.24968
G1 X132.401 Y82.235 E0.44596
G1 X132.401 Y90.538 E0.24974
G1 X134.973 Y91.864 E0.08706
G1 X137.029 Y93.284 E0.07516
G1 X138.885 Y94.957 E0.07516
G1 X140.511 Y96.855 E0.07516
G1 X141.812 Y98.842 E0.07146
G1 X141.879 Y98.945 E0.00370
G1 X142.968 Y101.194 E0.07516
G1 X143.759 Y103.564 E0.07516
G1 X144.239 Y106.016 E0.07516
G1 X144.399 Y108.509 E0.07512
G1 X144.213 Y111.194 E0.08099
G1 X143.657 Y113.827 E0.08094
G1 X142.742 Y116.358 E0.08094
G1 X141.486 Y118.738 E0.08094
G1 X139.913 Y120.921 E0.08094
G1 X138.053 Y122.866 E0.08094
G1 X135.942 Y124.535 E0.08094
G1 X133.621 Y125.896 E0.08094
G1 X131.134 Y126.923 E0.08094
G1 X128.528 Y127.596 E0.08094
G1 X125.855 Y127.902 E0.08094
G1 X123.165 Y127.836 E0.08094
G1 X120.510 Y127.398 E0.08094
G1 X117.941 Y126.597 E0.08094
G1 X115.507 Y125.449 E0.08094
G1 X113.256 Y123.975 E0.08094
G1 X111.230 Y122.204 E0.08094
G1 X109.468 Y120.169 E0.08094
G1 X108.005 Y117.911 E0.08094
G1 X106.868 Y115.472 E0.08094
G1 X106.079 Y112.899 E0.08094
G1 X105.654 Y110.242 E0.08094
G1 X105.600 Y107.552 E0.08094
G1 X105.919 Y104.880 E0.08094
G1 X106.604 Y102.278 E0.08094
G1 X107.643 Y99.795 E0.08094
G1 X109.014 Y97.480 E0.08094
G1 X110.693 Y95.377 E0.08094
G1 X112.647 Y93.526 E0.08094
G1 X114.837 Y91.964 E0.08094
G1 X117.522 Y90.563 E0.09107
G1 X117.198 Y90.307 F7200.000
G1 F1260
G1 X117.198 Y81.858 E0.25415
G1 X132.778 Y81.858 E0.46864
G1 X132.778 Y90.308 E0.25417
G1 X135.168 Y91.540 E0.08088
G1 X137.263 Y92.988 E0.07662
G1 X139.156 Y94.693 E0.07662
G1 X140.813 Y96.628 E0.07662
G1 X142.128 Y98.636 E0.07219
G1 X142.208 Y98.759 E0.00443
G1 X143.318 Y101.052 E0.07662
G1 X144.124 Y103.468 E0.07662
G1 X144.613 Y105.968 E0.07662
G1 X144.777 Y108.509 E0.07661
G1 X144.587 Y111.247 E0.08254
G1 X144.020 Y113.931 E0.08252
G1 X143.088 Y116.511 E0.08252
G1 X141.807 Y118.937 E0.08252
G1 X140.204 Y121.163 E0.08252
G1 X138.308 Y123.146 E0.08252
G1 X136.156 Y124.847 E0.08252
G1 X133.789 Y126.235 E0.08252
G1 X131.253 Y127.281 E0.08252
G1 X128.597 Y127.968 E0.08252
G1 X125.872 Y128.280 E0.08252
G1 X123.129 Y128.212 E0.08252
G1 X120.422 Y127.766 E0.08252
G1 X117.803 Y126.949 E0.08252
G1 X115.322 Y125.779 E0.08252
G1 X113.027 Y124.276 E0.08252
G1 X110.962 Y122.470 E0.08252
G1 X109.166 Y120.397 E0.08252
G1 X107.674 Y118.094 E0.08252
G1 X106.515 Y115.608 E0.08252
G1 X105.711 Y112.985 E0.08252
G1 X105.277 Y110.276 E0.08252
G1 X105.222 Y107.533 E0.08252
G1 X105.547 Y104.809 E0.08252
G1 X106.246 Y102.156 E0.08252
G1 X107.305 Y99.625 E0.08252
G1 X108.703 Y97.265 E0.08252
G1 X110.415 Y95.121 E0.08252
G1 X112.406 Y93.235 E0.08252
G1 X114.640 Y91.642 E0.08252
G1 X117.145 Y90.335 E0.08498
G1 X117.591 Y90.234 F7200.000
G1 F5760
G1 X117.158 Y88.140 E-0.76000
G1 E-0.04000 F2100.00000
G1 X132.343 Y90.635 F7200.000
G1 E0.80000 F2100.00000
G1 F1680
G1 X142.786 Y101.078 E0.44443
G1 F5760
G1 X141.235 Y99.527 E-0.76000
G1 E-0.04000 F2100.00000
G1 X142.286 Y100.044 F7200.000
G1 E0.80000 F2100.00000
G1 F1680
G1 X133.444 Y91.203 E0.37627
G1 F5760
G1 X134.996 Y92.754 E-0.76000
G1 E-0.04000 F2100.00000
G1 X134.545 Y91.770 F7200.000
G1 E0.80000 F2100.00000
G1 F1680
G1 X141.785 Y99.010 E0.30811
G1 F5760
G1 X140.234 Y97.459 E-0.76000
G1 E-0.04000 F2100.00000
G1 X140.779 Y97.470 F7200.000
G1 E0.80000 F2100.00000
G1 F1680
G1 X136.062 Y92.753 E0.20072
G1 F5760
G1 X137.614 Y94.305 E-0.76000
G1 E-0.04000 F2100.00000
G1 X132.443 Y98.737 F7200.000
G1 E0.80000 F2100.00000
G1 F1680
G1 X117.858 Y84.152 E0.62072
G1 X117.858 Y83.618 E0.01605
G1 X144.027 Y109.788 E1.11370
G1 X144.062 Y109.289 E0.01505
G1 X117.858 Y83.085 E1.11518
G1 X117.858 Y82.551 E0.01605
G1 X144.096 Y108.790 E1.11665
G1 X144.116 Y108.508 E0.00852
G1 X144.100 Y108.260 E0.00746
G1 X118.357 Y82.518 E1.09554
G1 X118.891 Y82.518 E0.01605
G1 X144.063 Y107.690 E1.07127
G1 X144.026 Y107.120 E0.01720
G1 X119.424 Y82.518 E1.04700
G1 X119.958 Y82.518 E0.01605
G1 X143.990 Y106.549 E1.02273
G1 X143.941 Y105.967 E0.01758
G1 X120.491 Y82.518 E0.99795
G1 X121.025 Y82.518 E0.01605
G1 X143.811 Y105.304 E0.96972
G1 X143.681 Y104.641 E0.02034
G1 X121.558 Y82.518 E0.94150
G1 X122.092 Y82.518 E0.01605
G1 X143.552 Y103.977 E0.91327
G1 X143.485 Y103.637 E0.01045
G1 X143.355 Y103.247 E0.01234
G1 X122.625 Y82.518 E0.88220
G1 X123.159 Y82.518 E0.01605
G1 X143.088 Y102.447 E0.84813
G1 X142.821 Y101.646 E0.02540
G1 X123.692 Y82.518 E0.81406
G1 X124.226 Y82.518 E0.01605
G1 X132.118 Y90.410 E0.33587
G1 X132.118 Y89.876 E0.01605
G1 X124.759 Y82.518 E0.31316
G1 X125.293 Y82.518 E0.01605
G1 X132.118 Y89.343 E0.29046
G1 X132.118 Y88.809 E0.01605
G1 X125.826 Y82.518 E0.26776
G1 X126.360 Y82.518 E0.01605
G1 X132.118 Y88.276 E0.24505
G1 X132.118 Y87.742 E0.01605
G1 X126.893 Y82.518 E0.22235
G1 X127.427 Y82.518 E0.01605
G1 X132.118 Y87.209 E0.19964
G1 X132.118 Y86.675 E0.01605
G1 X127.960 Y82.518 E0.17694
G1 X128.494 Y82.518 E0.01605
G1 X132.118 Y86.142 E0.15424
G1 X132.118 Y85.608 E0.01605
G1 X129.027 Y82.518 E0.13153
G1 X129.561 Y82.518 E0.01605
G1 X132.118 Y85.075 E0.10883
G1 X132.118 Y84.541 E0.01605
G1 X130.094 Y82.518 E0.08612
G1 X130.628 Y82.518 E0.01605
G1 X132.118 Y84.008 E0.06342
G1 X132.118 Y83.474 E0.01605
G1 X131.161 Y82.518 E0.04072
G1 X131.695 Y82.518 E0.01605
G1 X132.288 Y83.111 E0.02523
G1 F5760
G1 X131.695 Y82.518 E-0.29042
G1 F5760
G1 X131.161 Y82.518 E-0.18478
G1 F5760
G1 X131.743 Y83.099 E-0.28480
G1 E-0.04000 F2100.00000
G1 X130.921 Y97.748 F7200.000
G1 E0.80000 F2100.00000
G1 F1680
G1 X117.858 Y84.685 E0.55593
G1 X117.858 Y85.219 E0.01605
G1 X129.545 Y96.906 E0.49737
G1 X128.723 Y96.618 E0.02619
G1 X117.858 Y85.752 E0.46241
G1 X117.858 Y86.286 E0.01605
G1 X127.948 Y96.376 E0.42943
G1 X127.305 Y96.267 E0.01962
G1 X117.858 Y86.819 E0.40207
G1 X117.858 Y87.353 E0.01605
G1 X126.662 Y96.158 E0.37471
G1 X126.023 Y96.052 E0.01950
G1 X117.858 Y87.886 E0.34750
G1 X117.858 Y88.420 E0.01605
G1 X125.490 Y96.052 E0.32480
G1 X124.956 Y96.052 E0.01605
G1 X117.858 Y88.953 E0.30209
G1 X117.858 Y89.487 E0.01605
G1 X124.423 Y96.052 E0.27939
G1 X123.896 Y96.058 E0.01585
G1 X117.858 Y90.020 E0.25697
G1 X117.858 Y90.554 E0.01605
G1 X123.440 Y96.136 E0.23757
G1 X122.984 Y96.214 E0.01392
G1 X117.608 Y90.837 E0.22880
G1 X117.257 Y91.020 E0.01190
G1 X122.528 Y96.291 E0.22432
G1 X122.072 Y96.369 E0.01392
G1 X116.907 Y91.203 E0.21983
G1 X116.556 Y91.386 E0.01190
G1 X121.649 Y96.479 E0.21674
G1 X121.254 Y96.617 E0.01260
G1 X116.205 Y91.569 E0.21485
G1 X115.855 Y91.752 E0.01190
G1 X120.859 Y96.756 E0.21295
G1 X120.464 Y96.894 E0.01260
G1 X115.504 Y91.935 E0.21106
G1 X115.154 Y92.118 E0.01190
G1 X120.069 Y97.033 E0.20917
G1 X119.873 Y97.101 E0.00623
G1 X119.700 Y97.197 E0.00597
G1 X114.824 Y92.321 E0.20752
G1 X114.512 Y92.543 E0.01151
G1 X119.357 Y97.387 E0.20616
G1 X119.013 Y97.578 E0.01181
G1 X114.201 Y92.765 E0.20480
G1 X113.889 Y92.987 E0.01151
G1 X118.670 Y97.768 E0.20344
G1 X118.326 Y97.958 E0.01181
G1 X113.578 Y93.210 E0.20208
G1 X113.267 Y93.432 E0.01151
G1 X117.990 Y98.155 E0.20100
G1 X117.693 Y98.392 E0.01142
G1 X112.955 Y93.654 E0.20163
G1 X112.827 Y93.745 E0.00474
G1 X112.666 Y93.898 E0.00667
G1 X117.397 Y98.629 E0.20133
G1 X117.100 Y98.866 E0.01142
G1 X112.392 Y94.157 E0.20037
G1 X112.118 Y94.417 E0.01136
G1 X116.804 Y99.103 E0.19941
G1 X116.507 Y99.340 E0.01142
G1 X111.844 Y94.676 E0.19845
G1 X111.570 Y94.936 E0.01136
G1 X116.238 Y99.604 E0.19866
G1 X115.988 Y99.888 E0.01137
G1 X111.296 Y95.195 E0.19968
G1 X111.022 Y95.455 E0.01136
G1 X115.738 Y100.171 E0.20071
G1 X115.488 Y100.455 E0.01137
G1 X110.769 Y95.735 E0.20084
G1 X110.532 Y96.032 E0.01142
G1 X115.239 Y100.738 E0.20029
G1 X114.989 Y101.022 E0.01137
G1 X110.295 Y96.329 E0.19973
G1 X110.059 Y96.625 E0.01142
G1 X114.771 Y101.338 E0.20055
G1 X114.570 Y101.671 E0.01169
G1 X109.822 Y96.922 E0.20209
G1 X109.585 Y97.219 E0.01142
G1 X114.370 Y102.004 E0.20363
G1 X114.169 Y102.336 E0.01169
G1 X109.348 Y97.515 E0.20517
G1 X109.248 Y97.641 E0.00485
G1 X109.133 Y97.834 E0.00675
G1 X113.968 Y102.669 E0.20577
G1 X113.768 Y103.002 E0.01169
G1 X108.935 Y98.169 E0.20567
G1 X108.736 Y98.504 E0.01172
G1 X113.615 Y103.382 E0.20761
G1 X113.468 Y103.769 E0.01245
G1 X108.538 Y98.839 E0.20981
G1 X108.339 Y99.174 E0.01172
G1 X113.321 Y104.156 E0.21201
G1 X113.174 Y104.542 E0.01245
G1 X108.141 Y99.509 E0.21421
G1 X107.942 Y99.844 E0.01172
G1 X113.027 Y104.929 E0.21641
G1 X112.948 Y105.138 E0.00673
G1 X112.910 Y105.345 E0.00632
G1 X107.775 Y100.210 E0.21850
G1 X107.618 Y100.587 E0.01227
G1 X112.826 Y105.795 E0.22165
G1 X112.743 Y106.245 E0.01378
G1 X107.461 Y100.963 E0.22480
G1 X107.303 Y101.339 E0.01227
G1 X112.659 Y106.695 E0.22795
G1 X112.576 Y107.145 E0.01378
G1 X107.146 Y101.715 E0.23110
G1 X106.989 Y102.091 E0.01227
G1 X112.538 Y107.641 E0.23618
G1 X112.536 Y108.172 E0.01600
G1 X106.843 Y102.479 E0.24228
G1 X106.732 Y102.902 E0.01314
G1 X112.534 Y108.704 E0.24693
G1 X112.533 Y109.236 E0.01600
G1 X106.621 Y103.324 E0.25159
G1 X106.510 Y103.746 E0.01314
G1 X112.570 Y109.807 E0.25792
G1 X112.686 Y110.456 E0.01984
G1 X106.398 Y104.169 E0.26757
G1 X106.287 Y104.591 E0.01314
G1 X112.801 Y111.105 E0.27722
G1 X112.917 Y111.754 E0.01984
G1 X106.186 Y105.023 E0.28643
G1 X106.130 Y105.500 E0.01444
G1 X113.219 Y112.590 E0.30172
G1 X113.535 Y113.439 E0.02726
G1 X106.073 Y105.977 E0.31757
G1 X106.016 Y106.453 E0.01444
G1 X114.547 Y114.985 E0.36308
G1 F5760
G1 X112.996 Y113.433 E-0.76000
G1 E-0.04000 F2100.00000
G1 X118.560 Y118.998 F7200.000
G1 E0.80000 F2100.00000
G1 F1680
G1 X127.197 Y127.635 E0.36755
G1 X126.718 Y127.689 F7200.000
G1 F1680
G1 X105.959 Y106.930 E0.88347
G1 X105.902 Y107.407 E0.01444
G1 X126.086 Y127.591 E0.85900
G1 X125.842 Y127.619 E0.00740
G1 X125.574 Y127.612 E0.00806
G1 X105.890 Y107.928 E0.83770
G1 X105.901 Y108.473 E0.01638
G1 X125.027 Y127.599 E0.81396
G1 X124.480 Y127.585 E0.01647
G1 X105.912 Y109.017 E0.79022
G1 X105.923 Y109.561 E0.01638
G1 X123.933 Y127.572 E0.76648
G1 X123.386 Y127.558 E0.01647
G1 X105.934 Y110.106 E0.74273
G1 X105.936 Y110.217 E0.00335
G1 X106.017 Y110.722 E0.01540
G1 X122.780 Y127.486 E0.71340
G1 X122.141 Y127.380 E0.01948
G1 X106.119 Y111.358 E0.68189
G1 X106.220 Y111.993 E0.01936
G1 X121.503 Y127.275 E0.65037
G1 X120.864 Y127.170 E0.01948
G1 X106.322 Y112.628 E0.61886
G1 X106.355 Y112.835 E0.00632
G1 X106.514 Y113.353 E0.01631
G1 X120.150 Y126.990 E0.58032
G1 X119.375 Y126.748 E0.02443
G1 X106.750 Y114.123 E0.53730
G1 X106.986 Y114.892 E0.02422
G1 X118.600 Y126.506 E0.49428
G1 X118.043 Y126.333 E0.01754
G1 X117.759 Y126.199 E0.00948
G1 X107.309 Y115.748 E0.44473
G1 X107.774 Y116.748 E0.03318
G1 X116.749 Y125.722 E0.38191
G1 X115.738 Y125.245 E0.03361
G1 X107.890 Y117.396 E0.33402
G1 F5760
G1 X109.441 Y118.948 E-0.76000
G1 E-0.04000 F2100.00000
G1 X108.634 Y118.674 F7200.000
G1 E0.80000 F2100.00000
G1 F1680
G1 X114.830 Y124.870 E0.26369
G1 F5760
G1 X113.278 Y123.319 E-0.76000
G1 E-0.04000 F2100.00000
G1 X119.723 Y119.627 F7200.000
G1 E0.80000 F2100.00000
G1 F1680
G1 X127.522 Y127.426 E0.33193
G1 X128.001 Y127.372 E0.01450
G1 X120.906 Y120.277 E0.30194
G1 X121.699 Y120.536 E0.02511
G1 X128.479 Y127.316 E0.28855
G1 X128.903 Y127.207 E0.01318
G1 X122.424 Y120.727 E0.27575
G1 X123.042 Y120.812 E0.01879
G1 X129.327 Y127.097 E0.26748
G1 X129.751 Y126.988 E0.01318
G1 X123.661 Y120.897 E0.25920
G1 X124.279 Y120.982 E0.01879
G1 X130.175 Y126.878 E0.25092
G1 X130.599 Y126.769 E0.01318
